X: 49
T: Star Of Munster % aif<bb
B: AIF.049
F: 049star_m
Z: Brennan/Black
M: C
Q: 360
R: reel
L: 1/8
K: Ador
ed |\
c2Ac B2GB | AGEF GED2 | EAAB cBcd | eaaf gedB |
cA (3AAA BAGB | BGEF GED2 | EAAB cded | cABG A2 :|
ea |:\
agab ageg | agbg agef | g2ga gedf | (3gfg af gedg |
eaab ageg | agbg agef | gfga b2ag | fgaf gedB :|
